src/GFX/branch_icon_Science.svg

<?xml version="1.0" encoding="UTF-8" standalone="no"?>
<!DOCTYPE svg PUBLIC "-//W3C//DTD SVG 1.1//EN" "http://www.w3.org/Graphics/SVG/1.1/DTD/svg11.dtd">
<svg width="100%" height="100%" viewBox="0 0 160 160" version="1.1" xmlns="http://www.w3.org/2000/svg" xmlns:xlink="http://www.w3.org/1999/xlink" xml:space="preserve" xmlns:serif="http://www.serif.com/" style="fill-rule:evenodd;clip-rule:evenodd;stroke-miterlimit:10;">
    <g transform="matrix(0.933692,0,0,0.933692,4.27176,24.2539)">
        <g id="Layer_2">
            <g id="Layer_1-2">
                <g transform="matrix(1,0,0,1,0,20.8386)">
                    <path d="M18.2,105.31C18.303,107.531 17.493,109.7 15.96,111.31C14.245,113.112 11.836,114.092 9.35,114C4.193,114 -0.05,109.757 -0.05,104.6C-0.05,99.443 4.193,95.2 9.35,95.2C10.633,95.191 11.907,95.428 13.1,95.9C14.208,96.329 15.198,97.014 15.99,97.9L14.33,99.56C13.749,98.875 13.011,98.34 12.18,98C11.284,97.625 10.321,97.434 9.35,97.44C7.48,97.388 5.668,98.112 4.35,99.44C1.683,102.334 1.683,106.846 4.35,109.74C5.668,111.068 7.48,111.792 9.35,111.74C10.977,111.799 12.571,111.262 13.83,110.23C15.044,109.179 15.787,107.683 15.89,106.08L9.35,106.08L9.35,104L18.07,104C18.153,104.432 18.197,104.87 18.2,105.31Z" style="fill:rgb(128,128,128);fill-rule:nonzero;"/>
                </g>
                <g transform="matrix(1,0,0,1,0,20.8386)">
                    <path d="M20.29,107.42C20.231,105.679 20.873,103.985 22.07,102.72C23.257,101.488 24.91,100.812 26.62,100.86C28.325,100.808 29.974,101.485 31.15,102.72C32.36,103.979 33.013,105.674 32.96,107.42C33.021,109.167 32.367,110.865 31.15,112.12C29.977,113.363 28.328,114.047 26.62,114C24.91,114.048 23.257,113.372 22.07,112.14C20.868,110.87 20.226,109.168 20.29,107.42ZM22.6,107.42C22.551,108.603 22.967,109.76 23.76,110.64C24.513,111.412 25.547,111.849 26.625,111.849C27.703,111.849 28.737,111.412 29.49,110.64C30.28,109.759 30.693,108.602 30.64,107.42C30.692,106.247 30.278,105.1 29.49,104.23C28.754,103.428 27.714,102.971 26.625,102.971C25.536,102.971 24.496,103.428 23.76,104.23C22.969,105.099 22.552,106.246 22.6,107.42Z" style="fill:rgb(128,128,128);fill-rule:nonzero;"/>
                </g>
                <g transform="matrix(1,0,0,1,0,20.8386)">
                    <path d="M41,119.41C40.344,119.413 39.692,119.326 39.06,119.15C38.478,118.978 37.922,118.726 37.41,118.4C36.928,118.094 36.5,117.713 36.14,117.27C35.787,116.836 35.516,116.341 35.34,115.81L37.53,114.91C37.767,115.614 38.222,116.224 38.83,116.65C39.468,117.088 40.227,117.315 41,117.3C42.116,117.376 43.212,116.963 44,116.17C44.72,115.296 45.078,114.179 45,113.05L45,111.87L44.9,111.87C44.459,112.533 43.848,113.065 43.13,113.41C42.377,113.791 41.544,113.986 40.7,113.98C39.113,113.986 37.6,113.299 36.56,112.1C35.422,110.811 34.811,109.139 34.85,107.42C34.806,105.709 35.418,104.045 36.56,102.77C38.182,100.882 40.895,100.324 43.13,101.42C43.857,101.777 44.475,102.323 44.92,103L45,103L45,101.29L47.21,101.29L47.21,113.08C47.309,114.794 46.702,116.475 45.53,117.73C44.315,118.887 42.676,119.495 41,119.41ZM41.07,111.87C42.137,111.902 43.164,111.45 43.86,110.64C45.361,108.776 45.361,106.094 43.86,104.23C43.169,103.431 42.156,102.98 41.1,103C40.029,102.984 39.006,103.446 38.31,104.26C37.541,105.14 37.137,106.282 37.18,107.45C37.131,108.619 37.537,109.762 38.31,110.64C39.011,111.443 40.034,111.894 41.1,111.87L41.07,111.87Z" style="fill:rgb(128,128,128);fill-rule:nonzero;"/>
                </g>
                <g transform="matrix(1,0,0,1,0,20.8386)">
                    <rect x="50.55" y="95.58" width="2.32" height="18" style="fill:rgb(128,128,128);fill-rule:nonzero;"/>
                </g>
                <g transform="matrix(1,0,0,1,0,20.8386)">
                    <path d="M61.59,114C59.9,114.05 58.268,113.372 57.11,112.14C55.927,110.867 55.294,109.177 55.35,107.44C55.294,105.715 55.907,104.034 57.06,102.75C58.22,101.556 59.815,100.881 61.48,100.881C63.096,100.881 64.648,101.517 65.8,102.65C66.959,104.048 67.539,105.838 67.42,107.65L67.42,107.9L57.72,107.9C57.705,108.993 58.139,110.045 58.92,110.81C59.648,111.521 60.627,111.92 61.645,111.92C63.142,111.92 64.512,111.059 65.16,109.71L67.22,110.71C66.694,111.721 65.898,112.565 64.92,113.15C63.91,113.735 62.757,114.029 61.59,114ZM57.89,106L65,106C64.962,105.186 64.602,104.419 64,103.87C63.296,103.283 62.396,102.983 61.48,103.03C60.658,103.015 59.858,103.299 59.23,103.83C58.561,104.365 58.09,105.107 57.89,105.94L57.89,106Z" style="fill:rgb(128,128,128);fill-rule:nonzero;"/>
                </g>
                <g transform="matrix(1,0,0,1,0,20.8386)">
                    <path d="M86.83,108.78C86.879,110.246 86.234,111.652 85.09,112.57C83.878,113.532 82.366,114.038 80.82,114C79.394,114.02 78.002,113.558 76.87,112.69C75.714,111.791 74.884,110.536 74.51,109.12L76.72,108.22C76.862,108.733 77.074,109.225 77.35,109.68C77.603,110.097 77.92,110.472 78.29,110.79C78.643,111.104 79.049,111.351 79.49,111.52C79.927,111.701 80.397,111.793 80.87,111.79C81.802,111.827 82.719,111.537 83.46,110.97C84.118,110.447 84.49,109.64 84.46,108.8C84.473,108.065 84.17,107.359 83.63,106.86C82.777,106.158 81.785,105.643 80.72,105.35C79.28,104.83 78.38,104.48 78.03,104.35C76.291,103.635 75.153,101.93 75.16,100.05C75.153,98.736 75.737,97.487 76.75,96.65C77.843,95.709 79.249,95.21 80.69,95.25C81.955,95.203 83.204,95.553 84.26,96.25C85.204,96.859 85.91,97.773 86.26,98.84L84.1,99.75C83.898,99.078 83.48,98.49 82.91,98.08C81.56,97.16 79.766,97.192 78.45,98.16C77.855,98.581 77.506,99.271 77.52,100C77.519,100.615 77.781,101.201 78.24,101.61C79.319,102.32 80.499,102.863 81.74,103.22C83.218,103.626 84.565,104.408 85.65,105.49C86.437,106.403 86.857,107.575 86.83,108.78Z" style="fill:rgb(66,133,244);fill-rule:nonzero;"/>
                </g>
                <g transform="matrix(1,0,0,1,0,20.8386)">
                    <path d="M95.35,114C93.64,114.048 91.987,113.372 90.8,112.14C89.609,110.87 88.965,109.18 89.01,107.44C88.954,105.698 89.599,104.004 90.8,102.74C91.987,101.508 93.64,100.832 95.35,100.88C97.71,100.808 99.875,102.228 100.75,104.42L98.64,105.3C98.127,103.863 96.724,102.925 95.2,103C94.143,103.001 93.139,103.47 92.46,104.28C90.955,106.116 90.955,108.784 92.46,110.62C93.139,111.43 94.143,111.899 95.2,111.9C96.76,111.98 98.204,111.046 98.77,109.59L100.83,110.47C100.409,111.534 99.668,112.443 98.71,113.07C97.707,113.706 96.537,114.029 95.35,114Z" style="fill:rgb(66,133,244);fill-rule:nonzero;"/>
                </g>
                <g transform="matrix(1,0,0,1,0,20.8386)">
                    <path d="M106.33,97C106.335,97.434 106.166,97.852 105.86,98.16C105.554,98.47 105.136,98.645 104.7,98.645C103.806,98.645 103.07,97.909 103.07,97.015C103.07,97.01 103.07,97.005 103.07,97C103.058,96.568 103.229,96.15 103.54,95.85C103.846,95.54 104.264,95.365 104.7,95.365C105.594,95.365 106.33,96.101 106.33,96.995C106.33,96.997 106.33,96.998 106.33,97ZM105.86,101.25L105.86,113.57L103.54,113.57L103.54,101.26L105.86,101.25Z" style="fill:rgb(66,133,244);fill-rule:nonzero;"/>
                </g>
                <g transform="matrix(1,0,0,1,0,20.8386)">
                    <path d="M114.78,114C113.09,114.05 111.458,113.372 110.3,112.14C109.12,110.866 108.49,109.176 108.55,107.44C108.495,105.717 109.104,104.037 110.25,102.75C111.41,101.556 113.005,100.881 114.67,100.881C116.286,100.881 117.838,101.517 118.99,102.65C120.149,104.048 120.729,105.838 120.61,107.65L120.61,107.9L110.93,107.9C110.918,108.994 111.356,110.047 112.14,110.81C112.867,111.521 113.844,111.92 114.861,111.92C116.356,111.92 117.724,111.058 118.37,109.71L120.43,110.71C119.904,111.721 119.108,112.565 118.13,113.15C117.114,113.739 115.954,114.033 114.78,114ZM111.08,106L118.15,106C118.099,105.179 117.72,104.411 117.1,103.87C116.396,103.283 115.496,102.983 114.58,103.03C113.758,103.015 112.958,103.299 112.33,103.83C111.698,104.381 111.26,105.121 111.08,105.94L111.08,106Z" style="fill:rgb(66,133,244);fill-rule:nonzero;"/>
                </g>
                <g transform="matrix(1,0,0,1,0,20.8386)">
                    <path d="M123.23,101.26L125.44,101.26L125.44,103L125.54,103C125.931,102.358 126.492,101.835 127.16,101.49C127.856,101.099 128.641,100.892 129.44,100.89C130.729,100.81 131.994,101.279 132.92,102.18C133.788,103.206 134.226,104.529 134.14,105.87L134.14,113.61L131.82,113.61L131.82,106C131.773,104 130.773,103 128.82,103C127.918,102.991 127.061,103.406 126.51,104.12C125.883,104.87 125.552,105.823 125.58,106.8L125.58,113.61L123.27,113.61L123.23,101.26Z" style="fill:rgb(66,133,244);fill-rule:nonzero;"/>
                </g>
                <g transform="matrix(1,0,0,1,0,20.8386)">
                    <path d="M143,114C141.29,114.046 139.638,113.37 138.45,112.14C137.262,110.869 136.622,109.179 136.67,107.44C136.611,105.699 137.253,104.005 138.45,102.74C139.638,101.51 141.29,100.834 143,100.88C145.363,100.804 147.534,102.224 148.41,104.42L146.3,105.3C145.787,103.857 144.379,102.915 142.85,102.99C141.794,102.994 140.791,103.462 140.11,104.27C138.605,106.106 138.605,108.774 140.11,110.61C140.826,111.431 141.863,111.902 142.952,111.902C144.46,111.902 145.829,110.997 146.42,109.61L148.48,110.49C148.059,111.554 147.318,112.463 146.36,113.09C145.355,113.719 144.185,114.035 143,114Z" style="fill:rgb(66,133,244);fill-rule:nonzero;"/>
                </g>
                <g transform="matrix(1,0,0,1,0,20.8386)">
                    <path d="M156.38,114C154.693,114.051 153.063,113.372 151.91,112.14C150.727,110.867 150.094,109.177 150.15,107.44C150.094,105.715 150.707,104.034 151.86,102.75C153.018,101.556 154.612,100.882 156.275,100.882C157.889,100.882 159.44,101.517 160.59,102.65C161.749,104.048 162.329,105.838 162.21,107.65L162.21,107.9L152.53,107.9C152.518,108.994 152.956,110.047 153.74,110.81C154.467,111.521 155.444,111.92 156.461,111.92C157.956,111.92 159.324,111.058 159.97,109.71L162.03,110.71C161.504,111.721 160.708,112.565 159.73,113.15C158.714,113.739 157.554,114.033 156.38,114ZM152.69,106L159.75,106C159.713,105.186 159.353,104.419 158.75,103.87C158.042,103.282 157.139,102.982 156.22,103.03C155.398,103.015 154.598,103.299 153.97,103.83C153.323,104.373 152.873,105.115 152.69,105.94L152.69,106Z" style="fill:rgb(66,133,244);fill-rule:nonzero;"/>
                </g>
                <g transform="matrix(1.13697,0,0,1.13697,-8.99296,-10.9323)">
                    <path d="M120.44,45.79C120.44,57.17 117.08,66.24 110.36,73C102.787,81.047 92.817,85.083 80.45,85.11C69.175,85.354 58.287,80.921 50.39,72.87C42.19,64.703 38.077,54.623 38.05,42.63C38.023,30.637 42.103,20.54 50.29,12.34C58.159,4.26 69.033,-0.21 80.31,0C86.127,-0.051 91.9,1.022 97.31,3.16C102.328,5.079 106.819,8.164 110.41,12.16L102.91,19.69C100.285,16.571 96.942,14.135 93.17,12.59C89.109,10.857 84.735,9.976 80.32,10C71.864,9.846 63.71,13.2 57.81,19.26C51.75,25.493 48.73,33.273 48.75,42.6C48.77,51.927 51.817,59.697 57.89,65.91C63.815,71.949 71.981,75.277 80.44,75.1C88.547,75.1 95.293,72.813 100.68,68.24C106.067,63.667 109.173,57.403 110,49.45L79.69,49.24L79.69,39.46L119.9,39.64C120.26,41.67 120.441,43.728 120.44,45.79Z" style="fill:rgb(66,133,244);fill-rule:nonzero;"/>
                </g>
                <g transform="matrix(0.0616842,-1.1353,1.1353,0.0616842,29.0046,127.903)">
                    <ellipse cx="81.17" cy="43.42" rx="10.33" ry="27.76" style="fill:none;stroke:rgb(66,133,244);stroke-width:2px;"/>
                </g>
                <g transform="matrix(1.01404,-0.514228,0.514228,1.01404,-21.3632,36.0019)">
                    <ellipse cx="80.88" cy="43.4" rx="10.33" ry="27.76" style="fill:none;stroke:rgb(66,133,244);stroke-width:2px;"/>
                </g>
                <g transform="matrix(0.621068,-0.952353,0.952353,0.621068,-8.45858,88.7687)">
                    <ellipse cx="81.17" cy="43.42" rx="27.76" ry="10.33" style="fill:none;stroke:rgb(66,133,244);stroke-width:2px;"/>
                </g>
            </g>
        </g>
    </g>
</svg>

<svg xmlns="http://www.w3.org/2000/svg" viewBox="0 0 162.21 119.41"><defs><style>.cls-1{fill:gray;}.cls-2{fill:#4285f4;}.cls-3{fill:none;stroke:#4285f4;stroke-miterlimit:10;stroke-width:2px;}</style></defs><title>branch_iconAsset 13</title><g id="Layer_2" data-name="Layer 2"><g id="Layer_1-2" data-name="Layer 1"><path class="cls-1" d="M18.2,105.31a8.15,8.15,0,0,1-2.24,6A8.68,8.68,0,0,1,9.35,114a9.4,9.4,0,1,1,0-18.8,10,10,0,0,1,3.75.7,7.51,7.51,0,0,1,2.89,2l-1.66,1.66A5.61,5.61,0,0,0,12.18,98a7.22,7.22,0,0,0-2.83-.56,6.78,6.78,0,0,0-5,2,7.6,7.6,0,0,0,0,10.3,6.78,6.78,0,0,0,5,2,6.69,6.69,0,0,0,4.48-1.51,6,6,0,0,0,2.06-4.15H9.35V104h8.72A7.19,7.19,0,0,1,18.2,105.31Z"/><path class="cls-1" d="M20.29,107.42a6.52,6.52,0,0,1,1.78-4.7,6.08,6.08,0,0,1,4.55-1.86,6,6,0,0,1,4.53,1.86,6.5,6.5,0,0,1,1.81,4.7,6.43,6.43,0,0,1-1.81,4.7A6,6,0,0,1,26.62,114a6.08,6.08,0,0,1-4.55-1.86A6.52,6.52,0,0,1,20.29,107.42Zm2.31,0a4.53,4.53,0,0,0,1.16,3.22,4,4,0,0,0,5.73,0,4.52,4.52,0,0,0,1.15-3.22,4.46,4.46,0,0,0-1.15-3.19,3.89,3.89,0,0,0-5.73,0A4.47,4.47,0,0,0,22.6,107.42Z"/><path class="cls-1" d="M41,119.41a7.11,7.11,0,0,1-1.94-.26,6.52,6.52,0,0,1-1.65-.75,5.28,5.28,0,0,1-1.27-1.13,4.61,4.61,0,0,1-.8-1.46l2.19-.9a3.48,3.48,0,0,0,1.3,1.74,3.71,3.71,0,0,0,2.17.65A3.86,3.86,0,0,0,44,116.17,4.43,4.43,0,0,0,45,113.05v-1.18h-.1a4.43,4.43,0,0,1-1.77,1.54,5.3,5.3,0,0,1-2.43.57,5.45,5.45,0,0,1-4.14-1.88,6.84,6.84,0,0,1-1.71-4.68,6.71,6.71,0,0,1,1.71-4.65,5.48,5.48,0,0,1,6.57-1.35A4.53,4.53,0,0,1,44.92,103H45v-1.71h2.21v11.79a6.28,6.28,0,0,1-1.68,4.65A6.12,6.12,0,0,1,41,119.41Zm.07-7.54a3.54,3.54,0,0,0,2.79-1.23,5.11,5.11,0,0,0,0-6.41A3.56,3.56,0,0,0,41.1,103a3.6,3.6,0,0,0-2.79,1.26,4.59,4.59,0,0,0-1.13,3.19,4.54,4.54,0,0,0,1.13,3.19A3.6,3.6,0,0,0,41.1,111.87Z"/><path class="cls-1" d="M52.87,95.58v18H50.55v-18Z"/><path class="cls-1" d="M61.59,114a5.91,5.91,0,0,1-4.48-1.86,6.59,6.59,0,0,1-1.76-4.7,6.69,6.69,0,0,1,1.71-4.69,6.16,6.16,0,0,1,8.74-.1,7.1,7.1,0,0,1,1.62,5l0,.25H57.72a4,4,0,0,0,1.2,2.91,3.9,3.9,0,0,0,6.24-1.1l2.06,1a6.15,6.15,0,0,1-2.3,2.44A6.33,6.33,0,0,1,61.59,114Zm-3.7-8H65a3.08,3.08,0,0,0-1-2.13,3.64,3.64,0,0,0-2.52-.84,3.39,3.39,0,0,0-2.25.8A3.85,3.85,0,0,0,57.89,105.94Z"/><path class="cls-2" d="M86.83,108.78a4.66,4.66,0,0,1-1.74,3.79A6.61,6.61,0,0,1,80.82,114a6.34,6.34,0,0,1-3.95-1.31,6.69,6.69,0,0,1-2.36-3.57l2.21-.9a5.81,5.81,0,0,0,.63,1.46,4.65,4.65,0,0,0,.94,1.11,3.91,3.91,0,0,0,1.2.73,3.54,3.54,0,0,0,1.38.27,4,4,0,0,0,2.59-.82,2.65,2.65,0,0,0,1-2.17,2.58,2.58,0,0,0-.83-1.94,7.86,7.86,0,0,0-2.91-1.51c-1.44-.52-2.34-.87-2.69-1a4.63,4.63,0,0,1-2.87-4.3,4.38,4.38,0,0,1,1.59-3.4,5.79,5.79,0,0,1,3.94-1.4,6.07,6.07,0,0,1,3.57,1,4.9,4.9,0,0,1,2,2.59l-2.16.91a3.19,3.19,0,0,0-1.19-1.67,3.86,3.86,0,0,0-4.46.08,2.2,2.2,0,0,0-.93,1.84,2.15,2.15,0,0,0,.72,1.61,12.78,12.78,0,0,0,3.5,1.61,8.86,8.86,0,0,1,3.91,2.27A4.87,4.87,0,0,1,86.83,108.78Z"/><path class="cls-2" d="M95.35,114a6.08,6.08,0,0,1-4.55-1.86,6.62,6.62,0,0,1-1.79-4.7,6.52,6.52,0,0,1,1.79-4.7,6.08,6.08,0,0,1,4.55-1.86,5.63,5.63,0,0,1,5.4,3.54l-2.11.88A3.47,3.47,0,0,0,95.2,103a3.58,3.58,0,0,0-2.74,1.28,5,5,0,0,0,0,6.34,3.58,3.58,0,0,0,2.74,1.28,3.63,3.63,0,0,0,3.57-2.31l2.06.88a5.55,5.55,0,0,1-2.12,2.6A6,6,0,0,1,95.35,114Z"/><path class="cls-2" d="M106.33,97a1.62,1.62,0,0,1-.47,1.16A1.63,1.63,0,0,1,103.07,97a1.54,1.54,0,0,1,.47-1.15A1.63,1.63,0,0,1,106.33,97Zm-.47,4.25v12.32h-2.32V101.26Z"/><path class="cls-2" d="M114.78,114a5.91,5.91,0,0,1-4.48-1.86,6.58,6.58,0,0,1-1.75-4.7,6.73,6.73,0,0,1,1.7-4.69,6.16,6.16,0,0,1,8.74-.1,7.1,7.1,0,0,1,1.62,5l0,.25h-9.68a4,4,0,0,0,1.21,2.91,3.89,3.89,0,0,0,6.23-1.1l2.06,1a6.15,6.15,0,0,1-2.3,2.44A6.33,6.33,0,0,1,114.78,114Zm-3.7-8h7.07a3.08,3.08,0,0,0-1.05-2.13,3.64,3.64,0,0,0-2.52-.84,3.39,3.39,0,0,0-2.25.8A3.91,3.91,0,0,0,111.08,105.94Z"/><path class="cls-2" d="M123.23,101.26h2.21V103h.1a4.1,4.1,0,0,1,1.62-1.51,4.68,4.68,0,0,1,2.28-.6,4.58,4.58,0,0,1,3.48,1.29,5.2,5.2,0,0,1,1.22,3.69v7.74h-2.32V106q-.07-3-3-3a2.88,2.88,0,0,0-2.31,1.12,4,4,0,0,0-.93,2.68v6.81h-2.31Z"/><path class="cls-2" d="M143,114a6.1,6.1,0,0,1-4.55-1.86,6.62,6.62,0,0,1-1.78-4.7,6.52,6.52,0,0,1,1.78-4.7,6.1,6.1,0,0,1,4.55-1.86,5.63,5.63,0,0,1,5.41,3.54l-2.11.88a3.48,3.48,0,0,0-3.45-2.31,3.6,3.6,0,0,0-2.74,1.28,5,5,0,0,0,0,6.34,3.77,3.77,0,0,0,6.31-1l2.06.88a5.55,5.55,0,0,1-2.12,2.6A6,6,0,0,1,143,114Z"/><path class="cls-2" d="M156.38,114a5.88,5.88,0,0,1-4.47-1.86,6.59,6.59,0,0,1-1.76-4.7,6.69,6.69,0,0,1,1.71-4.69,6.15,6.15,0,0,1,8.73-.1,7.1,7.1,0,0,1,1.62,5l0,.25h-9.68a4,4,0,0,0,1.21,2.91,3.89,3.89,0,0,0,6.23-1.1l2.06,1a6.15,6.15,0,0,1-2.3,2.44A6.33,6.33,0,0,1,156.38,114Zm-3.69-8h7.06a3.07,3.07,0,0,0-1-2.13,3.66,3.66,0,0,0-2.53-.84,3.39,3.39,0,0,0-2.25.8A3.84,3.84,0,0,0,152.69,105.94Z"/><path class="cls-2" d="M120.44,45.79q0,17.07-10.08,27.21Q99,85.07,80.45,85.11A40.87,40.87,0,0,1,50.39,72.87Q38.09,60.62,38.05,42.63T50.29,12.34A40.84,40.84,0,0,1,80.31,0a45.17,45.17,0,0,1,17,3.16,33.88,33.88,0,0,1,13.1,9l-7.5,7.53a25.23,25.23,0,0,0-9.74-7.1A32.29,32.29,0,0,0,80.32,10a30.64,30.64,0,0,0-22.51,9.26q-9.09,9.35-9.06,23.34t9.14,23.31A30.69,30.69,0,0,0,80.44,75.1q12.16,0,20.24-6.86T110,49.45l-30.31-.21,0-9.78,40.21.18A35.06,35.06,0,0,1,120.44,45.79Z"/><ellipse class="cls-3" cx="81.17" cy="43.42" rx="10.33" ry="27.76" transform="translate(33.42 122.11) rotate(-86.89)"/><ellipse class="cls-3" cx="80.88" cy="43.4" rx="10.33" ry="27.76" transform="translate(-10.88 41.28) rotate(-26.89)"/><ellipse class="cls-3" cx="81.17" cy="43.42" rx="27.76" ry="10.33" transform="translate(0.47 87.69) rotate(-56.89)"/></g></g></svg>
